X:194
T:Thorn,The. JGi.194
M:C
L:1/8
Q:1/4=100
S:Joshua Gibbons MS,1823,Tealby,Lincs.
N:Melody to a popular song
R:Air
O:Tealby,Lincolnshire
Z:VMP/R.Greig, 2009
K:D
FG|A2{c}B>AA2Bc|d2A>G FDz A|d2dc cBA^G|A6{cBAG}FG|
A2{c}B>AA2Bc|df A>G FDz A|^Gd dc cB A^G|A a/e/a/e/ cAz2|
c2zAd2AA ff2d|cB AG FG AB|F2EDD2z2|c2z{cB}A A d2AA|
e2A ag Hf ad|dceA|FGAc|d2f/e/d/c/d2za/|b2b/g/b/g/ ecz c|
a2a/f/a/f/ dBz B|g2e/c/e/c/ df AF|B/G/B/G/ E/c/E/c/d2|]

